X: 1
T: Millbrae
C: Ronald Cooper
Z: John Chambers <jc:trillian.mit.edu>
N: Do we need permission, Chambers, Pete Clark
R: reel
M: C|
L: 1/8
K: A
|: af \
| "A"eA ~A2 eAce | "D"fedf "A"eaga | "Bm"fedc dcBA | "E7"G2 B2 B2 af |
| "A"eA ~A2 eAce | "D"fedf "A"eaga | "Bm"fedc "E7"dBed | "A"c2 A2 A2 :|
[| a2 \
| "E7"gbeg begb | "A"aAce agfe | "D"fedc dcBA | "E7"G2 B2 B2 a2 |
| "E7"gbeg begb | "A"aAce agfe | "D"fedc "E7"dBed | "A"c2 A2 A2 a2 |
| "E7"gbeg begb | "A"aAce agfe | "D"fedc dcBA | "E7"G2 B2 B2 af |
| "A"eA ~A2 eAce | "D"fedf "A"eaga | "Bm"fedc "E7"dBed | "A"c2 A2 A2 |]
